X: 31678
T: Parting Glass, The
R: barndance
M: 4/4
K: Eminor
BA|:G2 E2 E2 DE|G2 G2 A2 GA|B2 B2 BAGA|B2 D2 D2 BA|
G2 E2 E2 DE|G2 G2 A2 GA|B2 e2 dBAB|1 G2 E2 E2 BA:|2 G2 E2 E3 B||
|:dBde d3 B|dBde d3 B|c2 B2 A2 GA|B2 D2 D2 BA|
G2 E2 E2 DE|G2 G2 A2 GA|B2 e2 dBAB|1 G2 E2 E3 B:|2 G2 E2 E2 BA||

